X: 30491
M: 2/4
L: 1/16
K: G
(dc) |\
|: dc |\
|: Bc |\
d2d2d2g2 | d2d2d2g2 | d2d2 edcB | c2A2A2 (Bc) |\
d2d2d2g2 | d2d2d2g2 | d2Bc dcBA | G2G2G2 :|


